X: 1
T:Polkett e. Rost Pe
R:Polkett
O:Sweden
M:4/4
A:J\"amtland
K:D
A2BA G2FE | D2DF Ad f2 \
|1 A2Ac ef g2 | f2ed fedB :|2\
A2Ac efga | abag a4 :: de |\
f4 f2ed | cded cdef | g2g2 f2ed | cded cdef |\
g2a2 a2^ga | b2g2 gfga | b2 c2 c2Bc | e2d2d4:|
